abm/img/tool-build.svg

<?xml version="1.0" encoding="UTF-8" standalone="no"?>
<svg
   xmlns:dc="http://purl.org/dc/elements/1.1/"
   xmlns:cc="http://creativecommons.org/ns#"
   xmlns:rdf="http://www.w3.org/1999/02/22-rdf-syntax-ns#"
   xmlns:svg="http://www.w3.org/2000/svg"
   xmlns="http://www.w3.org/2000/svg"
   version="1.1"
   viewBox="0 0 48 48"
   height="48"
   width="48">
  <path
     style="fill:#ffffff"
     d="M 28.126 2.833 C 26.679 2.841 24.684 3.290 22.775 3.958 C 20.866 4.627 19.068 5.493 18.037 6.478 A 0.472 0.472 0 0 0 18.029 6.486 L 16.724 7.792 C 15.504 7.309 14.085 7.447 13.097 8.435 L 9.744 11.789 C 8.756 12.776 8.615 14.197 9.099 15.417 L 7.425 17.091 C 7.038 17.479 6.913 17.994 6.941 18.449 C 6.969 18.903 7.113 19.324 7.248 19.714 C 7.382 20.104 7.507 20.466 7.541 20.730 C 7.574 20.994 7.551 21.108 7.425 21.234 C 7.299 21.360 7.186 21.383 6.921 21.349 C 6.657 21.315 6.296 21.191 5.906 21.056 C 5.515 20.922 5.093 20.777 4.638 20.75 C 4.184 20.722 3.668 20.846 3.281 21.234 L 2.527 21.990 C 1.200 23.317 1.200 25.473 2.527 26.800 L 8.462 32.736 C 9.789 34.063 11.946 34.063 13.273 32.736 L 14.029 31.982 C 14.416 31.594 14.541 31.079 14.513 30.625 C 14.485 30.170 14.341 29.747 14.207 29.357 C 14.072 28.967 13.947 28.606 13.914 28.341 C 13.880 28.077 13.903 27.963 14.029 27.837 C 14.155 27.711 14.268 27.688 14.533 27.722 C 14.797 27.756 15.158 27.881 15.548 28.015 C 15.938 28.150 16.360 28.294 16.814 28.322 C 17.268 28.350 17.784 28.225 18.171 27.837 L 19.576 26.433 L 37.308 44.166 C 38.635 45.492 40.792 45.492 42.119 44.166 L 45.472 40.812 C 46.799 39.485 46.799 37.328 45.472 36.001 L 27.742 18.269 L 28.777 17.234 C 30.016 15.995 30.083 14.040 29.009 12.707 C 28.989 12.661 28.992 12.639 28.919 12.566 C 27.617 11.264 26.985 10.298 26.775 9.666 C 26.565 9.033 26.688 8.786 26.960 8.533 C 27.233 8.279 27.753 8.081 28.298 7.957 C 28.843 7.832 29.382 7.775 29.777 7.679 C 30.254 7.563 30.606 7.211 30.824 6.800 C 31.041 6.389 31.144 5.903 31.126 5.404 C 31.091 4.406 30.498 3.304 29.238 2.957 C 28.911 2.867 28.541 2.831 28.126 2.833 z M 28.130 3.779 C 28.486 3.777 28.784 3.811 28.988 3.867 C 29.848 4.103 30.157 4.753 30.181 5.437 C 30.193 5.779 30.115 6.116 29.988 6.357 C 29.860 6.598 29.704 6.725 29.554 6.761 C 29.290 6.825 28.701 6.895 28.089 7.035 C 27.478 7.175 26.813 7.379 26.316 7.841 C 25.819 8.303 25.587 9.084 25.878 9.964 C 26.170 10.845 26.896 11.878 28.251 13.234 C 28.219 13.201 28.152 13.076 28.220 13.212 A 0.472 0.472 0 0 0 28.275 13.298 C 29.058 14.270 29.012 15.662 28.109 16.566 L 26.740 17.935 A 0.472 0.472 0 0 0 26.740 18.603 L 44.804 36.669 C 45.773 37.638 45.773 39.175 44.804 40.144 L 41.451 43.498 C 40.482 44.466 38.945 44.466 37.976 43.498 L 19.910 25.431 A 0.472 0.472 0 0 0 19.242 25.431 L 17.503 27.169 C 17.317 27.356 17.150 27.395 16.873 27.378 C 16.595 27.361 16.235 27.252 15.855 27.121 C 15.475 26.990 15.076 26.839 14.652 26.785 C 14.227 26.731 13.723 26.807 13.361 27.169 C 12.999 27.532 12.922 28.036 12.976 28.460 C 13.030 28.885 13.181 29.285 13.312 29.666 C 13.443 30.046 13.553 30.406 13.570 30.683 C 13.587 30.961 13.547 31.128 13.361 31.314 L 12.605 32.068 C 11.636 33.036 10.099 33.036 9.130 32.068 L 3.195 26.132 C 2.226 25.164 2.226 23.626 3.195 22.658 L 3.949 21.902 C 4.135 21.715 4.302 21.676 4.580 21.693 C 4.857 21.710 5.217 21.820 5.597 21.951 C 5.977 22.082 6.378 22.233 6.802 22.287 C 7.227 22.341 7.731 22.264 8.093 21.902 C 8.455 21.540 8.532 21.035 8.478 20.611 C 8.424 20.186 8.273 19.786 8.142 19.406 C 8.011 19.026 7.901 18.667 7.884 18.390 C 7.867 18.113 7.907 17.946 8.093 17.759 L 9.923 15.929 A 0.472 0.472 0 0 0 10.003 15.369 C 9.490 14.434 9.615 13.253 10.412 12.457 L 13.765 9.103 C 14.561 8.307 15.740 8.183 16.675 8.697 A 0.472 0.472 0 0 0 17.236 8.617 L 18.689 7.162 C 19.512 6.376 21.251 5.492 23.087 4.849 C 24.924 4.206 26.882 3.785 28.130 3.779 z " />
</svg>

<svg xmlns="http://www.w3.org/2000/svg" height="48" width="48" class="undefined">
  <style>
    .tb-a{ fill: #808080; stroke-width: 0.4; stroke: #808080; }
  </style>
  <path class="tb-a" d="M28.1 2.8c-1.4 0-3.4.5-5.3 1.2-1.9.6-3.7 1.5-4.8 2.5l-1.3 1.3c-1.2-.5-2.6-.4-3.6.6l-3.4 3.4c-.9 1-1.1 2.4-.6 3.6l-1.7 1.7c-.4.4-.5.9-.5 1.3.1.5.2.9.3 1.3.2.4.3.8.3 1 .1.3.1.4-.1.5-.1.2-.2.2-.5.1-.2 0-.6-.1-1-.2-.4-.2-.8-.3-1.3-.3-.4-.1-.9 0-1.3.4l-.8.8c-1.3 1.3-1.3 3.5 0 4.8l6 5.9c1.3 1.4 3.4 1.4 4.8 0l.7-.7c.4-.4.5-.9.5-1.4 0-.4-.2-.9-.3-1.2-.1-.4-.3-.8-.3-1.1 0-.2 0-.3.1-.5.2-.1.3-.1.5-.1.3.1.7.2 1 .3.4.2.9.3 1.3.3.5.1 1-.1 1.4-.5l1.4-1.4 17.7 17.8c1.3 1.3 3.5 1.3 4.8 0l3.4-3.4c1.3-1.3 1.3-3.5 0-4.8L27.7 18.3l1.1-1.1c1.2-1.2 1.3-3.2.2-4.5 0 0 0-.1-.1-.1-1.3-1.3-1.9-2.3-2.1-2.9-.2-.7-.1-.9.2-1.2.2-.2.8-.4 1.3-.5.5-.2 1.1-.2 1.5-.3.5-.1.8-.5 1-.9.2-.4.3-.9.3-1.4 0-1-.6-2.1-1.9-2.4-.3-.1-.7-.2-1.1-.2zm0 1c.4 0 .7 0 .9.1.8.2 1.2.9 1.2 1.5 0 .4-.1.7-.2 1-.1.2-.3.3-.4.4-.3 0-.9.1-1.5.2-.6.2-1.3.4-1.8.8-.5.5-.7 1.3-.4 2.2.3.8 1 1.9 2.4 3.2-.1 0-.1-.1-.1 0a.5.5 0 00.1.1c.8 1 .7 2.4-.2 3.3l-1.4 1.3a.5.5 0 000 .7l18.1 18.1c1 .9 1 2.5 0 3.4l-3.3 3.4c-1 1-2.6 1-3.5 0L19.9 25.4a.5.5 0 00-.7 0l-1.7 1.8c-.2.2-.3.2-.6.2s-.7-.1-1-.3c-.4-.1-.8-.3-1.2-.3-.5-.1-1 0-1.3.4-.4.3-.5.8-.4 1.3 0 .4.2.8.3 1.2.1.3.3.7.3 1 0 .3-.1.4-.2.6l-.8.8c-1 .9-2.5.9-3.5 0l-5.9-6c-1-.9-1-2.5 0-3.4l.7-.8c.2-.2.4-.2.7-.2.3 0 .6.1 1 .3l1.2.3c.4 0 .9 0 1.3-.4s.4-.9.4-1.3c-.1-.4-.2-.8-.4-1.2-.1-.4-.2-.7-.2-1 0-.3 0-.5.2-.6l1.8-1.9a.5.5 0 00.1-.5c-.5-1-.4-2.1.4-2.9l3.4-3.4c.8-.8 1.9-.9 2.9-.4a.5.5 0 00.5-.1l1.5-1.4c.8-.8 2.6-1.7 4.4-2.4 1.8-.6 3.8-1 5-1z" />
</svg>
